assets/img/braze_icons/currency-bitcoin-circle.svg

<svg fill="none" height="24" viewBox="0 0 24 24" width="24" xmlns="http://www.w3.org/2000/svg"><g fill="#801ed7"><path d="m15.5 14.25c0 .6904-.5596 1.25-1.25 1.25h-3.75v-2.5h3.75c.6904 0 1.25.5596 1.25 1.25z"/><path d="m13.75 8.5h-3.25v2.5h3.25c.6904 0 1.25-.5596 1.25-1.25 0-.69036-.5596-1.25-1.25-1.25z"/><path clip-rule="evenodd" d="m12 1c-6.07513 0-11 4.92487-11 11 0 6.0751 4.92487 11 11 11 6.0751 0 11-4.9249 11-11 0-6.07513-4.9249-11-11-11zm-2 4c.5523 0 1 .44772 1 1v.5h1v-.5c0-.55228.4477-1 1-1s1 .44772 1 1v.50947c1.6781.12766 3 1.52972 3 3.24053 0 .7509-.2546 1.4422-.6822 1.9925.722.5961 1.1822 1.4981 1.1822 2.5075 0 1.7949-1.4551 3.25-3.25 3.25h-.25v.5c0 .5523-.4477 1-1 1s-1-.4477-1-1v-.5h-1v.5c0 .5523-.4477 1-1 1-.55228 0-1-.4477-1-1v-.5h-1c-.55228 0-1-.4477-1-1s.44772-1 1-1h.5v-7h-.5c-.55228 0-1-.44772-1-1s.44772-1 1-1h1v-.5c0-.55228.44772-1 1-1z" fill-rule="evenodd"/></g></svg>

<svg width="24" height="24" viewBox="0 0 24 24" fill="none" xmlns="http://www.w3.org/2000/svg">
<path d="M15.5 14.25C15.5 14.9404 14.9404 15.5 14.25 15.5H10.5V13H14.25C14.9404 13 15.5 13.5596 15.5 14.25Z" fill="#801ED7"/>
<path d="M13.75 8.5H10.5V11H13.75C14.4404 11 15 10.4404 15 9.75C15 9.05964 14.4404 8.5 13.75 8.5Z" fill="#801ED7"/>
<path fill-rule="evenodd" clip-rule="evenodd" d="M12 1C5.92487 1 1 5.92487 1 12C1 18.0751 5.92487 23 12 23C18.0751 23 23 18.0751 23 12C23 5.92487 18.0751 1 12 1ZM10 5C10.5523 5 11 5.44772 11 6V6.5H12V6C12 5.44772 12.4477 5 13 5C13.5523 5 14 5.44772 14 6V6.50947C15.6781 6.63713 17 8.03919 17 9.75C17 10.5009 16.7454 11.1922 16.3178 11.7425C17.0398 12.3386 17.5 13.2406 17.5 14.25C17.5 16.0449 16.0449 17.5 14.25 17.5H14V18C14 18.5523 13.5523 19 13 19C12.4477 19 12 18.5523 12 18V17.5H11V18C11 18.5523 10.5523 19 10 19C9.44772 19 9 18.5523 9 18V17.5H8C7.44772 17.5 7 17.0523 7 16.5C7 15.9477 7.44772 15.5 8 15.5H8.5V8.5H8C7.44772 8.5 7 8.05228 7 7.5C7 6.94772 7.44772 6.5 8 6.5H9V6C9 5.44772 9.44772 5 10 5Z" fill="#801ED7"/>
</svg>
